X:1
T:Norsk Polkett
M:4/4
K:A
L:1/4
|:  "A"a e "D"d f | "A"e c A B/c/ | "D"d B "G"=G B | "A"A c e f/g/ |
a e "D"d f | "A"e c A B/c/ | "D"d B "G"=G B | "A"A3 :|
|: A/B/ | "A"c A "D(G)"d2 | d A "C(F)"=c2 | "G(Em)"B>A =G B | "A"A c e2|
a g a2 | a e "D"df | "Em"e>d B =G | "A"A3 :|
